X:1
T:Choeur des pélerins
T:Choeur des pélerins
T:Wagner
C:Wagner
%%score ( 1 2 ) ( 3 4 )
L:1/8
Q:1/4=100
M:3/4
K:C
V:1 treble nm="Alto"
V:2 treble 
V:3 bass nm="Basses"
V:4 bass 
V:1
 G2 | c4 G2 | E4 (3EFG | G2 A2 G2 | G2 F2 A2 | d4 c2 | B4 (3GAB | c2 A2 G>E | E2 D2 G>A | %9
w: D'un|coeur se-|rein, je- e vous|di- is bon-|soir * ,|prai- ries|ai- mées, je \-|puis don- onc vous|re- voir * ;|
 A2 G2 A2 | A4 G>A | A2 G2 A2 | A4 A2 | G4 (3GAB | c2 B2 A2 | G2{B} A3 G | G4 G2 | G4 ^F>=F | %18
w: bâ- â- ton|\- de Dieu,|re- e- pose|\- en-|fin, Sei- gneur pou|\- * r|toi, j'ai fait|lon- ong|che- min; j'ai|
 F4 _B,>_B | _B4 A>_A | _A4 _D>_d | _d4 c>=B | B4 c2 | _B2 _A2 _EF | G4 G2 | G4 ^F>=F | F4 _B,>_B | %27
w: ex- pi- i-|é, j'ai \-|fait ma \-|paix; à \-|toi Sei|\- gneur vou- é|\- pour|ja- mais; tu|as bé \-|
 _B4 A>_A | _A4 _D>_d | _d4 c>=B | B4 c2 | B2 A2 GF | E2 D z G2 | G4 G>A | B4 B2 | B4 B>c | d6- | %37
w: ni mon \-|re- pen \-|tir, vers \-|toi ce|\- chant va re|\- ten \-|tir * .|Vers toi|ce \- chant|va|
 d4 G2 | c4 G2 | E4 (3EFG | G2 A2 G2 | G2 F2 A2 | d4 c2 | B4 (3GAB | c2 A2 G>E | E2 D2 G>A | %46
w: * re-|ten \-|tir. Au coeur con-|trit est- est|donn- é- ée|la grâ-|ce, il en- tre-|ra au \- sé-|jou- our de- e|
 A2 G2 A2 | A4 G>A | A2 G2 A2 | A4 A2 | G4 (3GAB | c2 B2 A2 | G2{B} A3 G | G4 z z3/4 c/4 | c4- cB | %55
w: paix * ;|en- en- fer|\- ou mort,|rien- en|ne \- l'an- goisse,|ain- si lou|\- \- ons|\- Dieu|pou- * our|
 B4 z z3/4 e/4 | e4- ed | d4 c2 | B4 A2 | G4 G2 | c2 B2 A2 | G2 F2 E2 | D4 D2 | C6 |] %64
w: ja- mais.|AL- * LE-|LU- IA,|AL- LE-|LU- IA,|et pour ja-|mai- ais dans|l'é- é-|é-|
V:2
 G2 | G4 G2 | E4 z2 | G2 F2 C2 | D4 F2 | ^F4 F2 | G4 z2 | G2 E2 G>E | E2 D2 G>D | D4 E2 | F4 C>F | %11
 F4 E2 | ^F4 F2 | E2 =F2 G2 | E2 ^G2 E2 | =G2 ^F3 D | D4 G2 | G4 ^F>=F | F2 _B,2 B,>_B | _B4 A>_A | %20
 _A2 _D2 D>_d | _d4 c>=B | B2 G2 G2 | F4 CC | D2 z2 G,>G | G4 ^F>=F | F2 _B,2 B,>_B | _B4 A>_A | %28
 _A2 _D2 D>_d | _d4 c>=B | B2 G2 G2 | F4 DF | E2 D z G2 | G4 G2 | G4 B2 | B4 B>c | d6- | d4 G2 | %38
 G4 G2 | E4 z2 | G2 F2 C2 | D4 F2 | ^F4 F2 | G4 z2 | G2 E2 G>E | E2 D2 G>D | D4 E2 | F4 C>F | %48
 F4 E2 | ^F4 F2 | E2 =F2 G2 | E2 ^G2 E2 | =G2 ^F3 D | D4 z7/4 A/4 | A4- A^G | ^G4 z7/4 c/4 | %56
 c4- cB | B4 A2 | ^F4 F2 | E2 G2 G2 | c2 B2 A2 | G2 F2 E2 | D4 D2 | C6 |] %64
V:3
 G,2 | E4 C2 | C4 (3:2:2C2 C | C2 C2 C2 | A,4 D2 | A,4 A,2 | D4 (3B,CD | C4 C>C | B,4 G,>B, | %9
 B,4 C2 | D4 C>B, | B,4 E2 | ^D4 D2 | E2 F2 =D2 | E2 D2 C2 | B,2 C3 B, | B,4 G,2 | _E,2 D,2 D,2 | %18
 D,2 F,2 _A,2 | _G,2 F,2 F,2 | F,2 _A,2 _C2 | __B,2 _A,2 A,2 | =G,2 F,2 =E,2 | C,4 C,C, | %24
 =B,,2 D,2 F,2 | _E,2 D,2 D,2 | D,2 F,2 _A,2 | _G,2 F,2 F,2 | F,2 _A,2 _C2 | __B,2 _A,2 A,2 | %30
 =G,2 F,2 =E,2 | C4 A,2 | (B,2 B,) z D2 | E4 E2 | D4 G2 | G4 G2 | D6- | D4 G,2 | E4 C2 | %39
 C4 (3:2:2C2 C | C2 C2 C2 | A,4 D2 | A,4 A,2 | D4 (3B,CD | C4 C>C | B,4 G,>B, | B,4 C2 | D4 C>B, | %48
 B,4 E2 | ^D4 D2 | E2 F2 =D2 | E2 D2 C2 | B,2 C3 B, | B,4 z z3/4 E/4 | E4- EE | E4 z z3/4 =G/4 | %56
 G4- GG | G4 E2 | ^D4 D2 | E2 F2 =D2 | C6- | C6 | C2 B,A, B,2 | C6 |] %64
V:4
 G,2 | C4 E,2 | A,4 z2 | E,2 F,2 E,2 | D,4 D,2 | D,4 D,2 | F,4 z2 | E,2 C,2 E,>G, | G,4 G,>F | %9
 F4 E2 | D4 E>D | D4 C2 | B,4 B,2 | C2 D2 B,2 | A,2 B,2 C2 | D2 D,2 D,2 | G,4 G,2 | %17
 C,2 _B,,2 A,,2 | _B,,2 D,2 F,2 | _E,2 _D,2 C,2 | _D,2 F,2 _A,2 | _G,2 _F,2 _E,2 | D,2 _D,2 C,2 | %23
 F,,4 _A,,A,, | G,,2 B,,2 D,2 | C,2 _B,,2 A,,2 | _B,,2 D,2 F,2 | _E,2 _D,2 C,2 | _D,2 F,2 _A,2 | %29
 _G,2 _F,2 _E,2 | D,2 _D,2 C,2 | F,,4 F,2 | G,2 G, z B,2 | C4 C2 | G,4 G,2 | E4 E2 | D6- | D4 G,2 | %38
 C4 E,2 | A,4 z2 | E,2 F,2 E,2 | D,4 D,2 | D,4 D,2 | F,4 z2 | E,2 C,2 E,>G, | G,4 G,>F | F4 E2 | %47
 D4 E>D | D4 C2 | B,4 B,2 | C2 D2 B,2 | A,2 B,2 C2 | D2 D,2 D,2 | G,4 z7/4 A,/4 | A,4- A,E | %55
 E4 z7/4 C/4 | C4- CG, | G,4 A,2 | B,4 B,2 | C2 D2 B,2 | A,2 G,2 F,2 | E,2 F,2 ^F,2 | G,4 G,2 | %63
 C6 |] %64

